img/icon/video-grey.svg

<svg width="22" height="18" viewBox="0 0 22 18" fill="none" xmlns="http://www.w3.org/2000/svg">
<path d="M18.119 3V15C18.119 16.105 17.224 17 16.119 17H5.88104C4.77604 17 3.88104 16.105 3.88104 15V3C3.88104 1.895 4.77604 1 5.88104 1H16.12C17.224 1 18.119 1.895 18.119 3Z" stroke="#848E9F" stroke-width="1.5996" stroke-linecap="round" stroke-linejoin="round"/>
<path d="M18.119 3H19.721C20.549 3 21.221 3.672 21.221 4.5V13.5C21.221 14.328 20.549 15 19.721 15H18.119" stroke="#848E9F" stroke-width="1.4685" stroke-linecap="round" stroke-linejoin="round"/>
<path d="M3.88102 15H2.27802C1.45002 15 0.778015 14.328 0.778015 13.5V4.5C0.778015 3.672 1.45002 3 2.27802 3H3.88002" stroke="#848E9F" stroke-width="1.4685" stroke-linecap="round" stroke-linejoin="round"/>
<path d="M10.404 6.83618L13.175 8.47518C13.574 8.71118 13.574 9.28918 13.175 9.52518L10.404 11.1642C9.99701 11.4052 9.48401 11.1112 9.48401 10.6392V7.36118C9.48401 6.88818 9.99801 6.59518 10.404 6.83618V6.83618Z" stroke="#848E9F" stroke-width="1.5" stroke-linecap="round" stroke-linejoin="round"/>
</svg>

<svg width="22" height="18" fill="none" xmlns="http://www.w3.org/2000/svg"><path d="M18.119 3v12a2 2 0 0 1-2 2H5.881a2 2 0 0 1-2-2V3a2 2 0 0 1 2-2H16.12a2 2 0 0 1 1.999 2z" stroke="#848E9F" stroke-width="1.6" stroke-linecap="round" stroke-linejoin="round"/><path d="M18.119 3h1.602a1.5 1.5 0 0 1 1.5 1.5v9a1.5 1.5 0 0 1-1.5 1.5h-1.602M3.881 15H2.278a1.5 1.5 0 0 1-1.5-1.5v-9a1.5 1.5 0 0 1 1.5-1.5H3.88" stroke="#848E9F" stroke-width="1.468" stroke-linecap="round" stroke-linejoin="round"/><path d="M10.404 6.836l2.771 1.64a.61.61 0 0 1 0 1.05l-2.771 1.638a.61.61 0 0 1-.92-.525V7.361a.61.61 0 0 1 .92-.525z" stroke="#848E9F" stroke-width="1.5" stroke-linecap="round" stroke-linejoin="round"/></svg>
